!!!OTL: WENN MIRS DER HERR NICHT FUER UNGUT
!!!ARE: Europa, Mitteleuropa, Deutschland, Schwedt a.d. Oder
!!!SCT: E1064A
!!!YEM: Copyright 1995, estate of Helmut Schaffrath.
**kern
*ICvox
*Ivox
*M2/4
*k[f#]
*G:
=1
{4g
8g
8a
=2
4b
8dd}
{8b
=3
4a
8a
8a
=4
4g
8d}
{8d
=5
8.b
16a
8b
8cc
=6
4dd
8gg}
{8dd
=7
4cc
4cc
=8
4b
8r}
{8g
=9
8.dd
16dd
8dd
8dd
=10
4ee
8ee}
{8dd
=11
8.cc
16b
8cc
8ee
=12
4.dd}
{8cc
=13
8.b
16g
8b
8dd
=14
8.dd
16cc
8b}
{8a
=15
4b
4a
=16
4g
8r}
{8g
=17
8.dd
16dd
8dd
8dd
=18
4ee
8ee}
{8dd
=19
8.cc
16b
8cc
8ee
=20
4.dd}
{8cc
=21
8.b
16g
8b
8dd
=22
8.dd
16cc
8b}
{8a
=23
4b
4a
=24
4g
4r}
==
!!!AGN: Raetsel - Lied
!!!ONB: ESAC (Essen Associative Code) Database: ERK3
!!!AMT: simple duple
!!!AIN: vox
!!!EED: Helmut Schaffrath
!!!EEV: 1.0
*-
